X:78
%%vocalfont Baskerville10Pro 11
%%score 1 2
T:Little Musgrave and Lady Barnard
M:C	
L:1/8
K:G
V:1 clef-treble
V:2 clef-bass octave=-1
V:1
D2|G2(G>F)E2c>B & x2B,2C2C2|A>GF>A D2D2 & D2x4A,2|G2G>F E2c>B & D2x2C2C2|A6D2 & D2x6|
w:As it fell* out on a high* holiday,** As many there* be in the year, When
V:2
x2|x2[G,G]2[CG]2[A,A]2|[DF]2z2z2F2&x6D>C|[B,G]2z2[CG]2[A,A]2|[DF]2A,2D,2z2|
V:1
(G>A)B>cd2(cB)&x2G2A2F2|c2BAB2GA&G2D2D2DF|B2G>GD2F2&G2D2B,2A,2|[B,G]6||
w:young* men and maids to-*ge-ther do go,  Their* mass-es and matins to hear.
V:2
z2G2F2D2|E2F2G2B,A,|G,2B,2D2D,2|(G,4G2)|| 

